X:1
T:King Alfred, 77.77.77
T:Alfred Edward Redhead, 1916
T:King Alfred, 77.77.77
T:Public Domain
C:Alfred Edward Redhead, 1916
Z:Public Domain
%%score ( 1 2 ) ( 3 4 )
L:1/8
M:4/4
K:E
V:1 treble 
V:2 treble 
V:3 bass 
V:4 bass 
V:1
 [EG]2 [EG]2 E2 z F x | E2 [EA]2 (A2 G2) | F2 [Fc]2 B2 z B | [Ec]2 [Fe]2 [Fd]4 | %4
 F2 z c [Ec]2 [EB]2 x | E2 z B (A2 G2) x | [EF]2 [EG]2 [EA]2 [Dc]2 | [EB]2 [EG]2 (E2 D2) | %8
 B2 c2 =d3 B | F2 G2 A4 | E2 [EF]2 [EG]3 [EG] | [DG]2 [DF]2 E4 |] %12
V:2
 x4 G3 D2 | E2 D4 x2 | F2 B3 E2 x | x8 | c3 F2 x4 | A3 (D2 E4) | x8 | x4 F4 | B2 c2 =d3 B | %9
 F2 G2 A4 | E2 x6 | x4 E4 |] %12
V:3
 [E,B,]2 [G,,B,]2 [B,,B,]2 [B,,A,]2 x | [C,G,]2 [C,A,]2 (B,,2 B,2) | %2
 [A,C]2 [A,D]2 [G,E]2 [=G,B,]2 | [F,B,]2 [F,^A,]2 B,4 | [A,C]2 [A,D]2 G,2 z A, x | %5
 [F,C]2 [B,,B,]2 (C2 B,2) x | [A,C]2 [G,C]2 [F,C]2 [F,A,]2 | [G,B,]2 [E,B,]2 B,4 | B,2 C2 =D3 B, | %9
 F,2 G,2 A,4 | [C,G,]2 [C,^A,]2 [B,,B,]3 [B,,B,] | [B,,B,]2 [B,,A,]2 [E,,E,G,]4 |] %12
V:4
 x9 | x4 B,4 | x8 | x4 B,4 | x4 E3 G,2 | x4 E,4 x | x8 | x4 B,4 | B,2 C2 =D3 B, | F,2 G,2 A,4 | %10
 x8 | x8 |] %12

